X: 1
T: the Judique Consolidated High School 1991 Grads Reel
C: Kinnon Beaton 1990-12-1
%D:1990
R: reel
S: Fiddle Hell Online 2021-5-14
Z: 2021 John Chambers <jc:trillian.mit.edu>
M: C|
L: 1/8
K: A
E |\
A/A/A cB cAAc | affa ecce | f2fa efab | afeA cBBc |
A2cB cAAc | affa ecce | fgab afea | fecB cA A :|
|: B |\
(A<a)ab afea | f2fa eccB | AF F/F/F EFAB | cefe cBBc |
[1 (A<a)ab afea | f2fa eccB | AF F/F/F EFAB | cefe cA A :|
[2 A2cB cAAc | affa eccB | AF F/F/F EFAB | cefe cA A |]
